!!!COM: Schubert, Franz
!!!CNT: Deutscher
!!!TXO: Deutsch
!!!LYR: Franz Seraph Ritter von Bruchmann
!!!OTL: "Im Haine"
!!!OPS: Op. 56
!!!ONM: No. 3
!!!ODT: 1822/
!!NB: Vocal melody only encoded.
!!NB: Original key: A major 
**kern	**silbe
*clefG4	*
*k[f#]	*
*M9/8	*
*MM[massig]	*
=3	=3
4.r	.
4.r	.
{4d	{Son-
8d	-nen
=4	=4
4B	strah-
8d	|
4.g	-len
8g	durch
8f#	|
8e	die
=5	=5
4d	Tan-
8f#	|
4.a	-nen,
8a	wie
8cc	|
8ee	sie
=6	=6
4ee	fal-
8dd	|
4.b}	-len,}
{8b	{ziehn
8cc	|
8dd	von
=7	=7
4dd	dan-
8cc	|
4.a	-nen
4cc	al-
8cc	-le
=8	=8
4cc	Schmer-
8b	|
4.g	-zen
8.a	und
16g	|
16a	im
16g	|
=9	=9
8.g	Her-
16cc	|
16b	|
16cc	|
4.ee}	-zen}
{8cc	{woh-
16ddq	|
16ccq	|
8b	|
8a	-net
=10	=10
4g	rei-
8a	-ner
4b	Frie-
8dd	|
8cc	|
8a	|
8dd	-de
=11	=11
2.b}	nur,}
{8.cc	{ziehn
16b	|
16cc	von
16b	|
=12	=12
4b	dan-
8ee	|
4.b	-nen
4b-	al-
8a	-le
=13	=13
8.a	Schmer-
16bn	|
16cc#	|
16dd	|
4.a	-zen
8g	und
16bn	|
16a	|
8g	im
=14	=14
8.g	Her-
16ccn	|
16bn	|
16ccn	|
4.ee}	-zen}
{8cc	{woh-
16ddq	|
16ccq	|
8b	|
8a	-net
=15	=15
4g	rei-
8a	-ner
4b	Frie-
8dd	|
8cc	|
8a	|
8dd	-de
=16	=16
4.b	nur,
4.ffn}	|}
{8ee	{woh-
8cc	|
8a	-net
=17	=17
4g	rei-
8a	-ner
4b	Frie-
8dd	|
8cc	|
8a	|
8dd	-de
=18	=18
4.g}	nur.}
4.r	.
4.r	.
*-	*-
